!!!!SEGMENT: pl-sa--86-a-ii-26--003_pych-leopold--missa-brevis-in-d-credo.krn
!!!cenid: 17xx:369
!!!COM: Pych, Leopold
!!!COM-rismID: pe30018039
!!!CDT: <1758->1774
!!!CNT:
!!!OPR: Missa brevis in D
!!!OTL: Credo
!!!OMV: 003
!!!PDT:
!!!AGN: Sacred; Mass
!!!SMS-siglum: PL-SA
!!!SMS-shelfmark: 86/A II 26
!!!SMS-shelfwork: 001-003 M
!!!NIFC-rismSourceID: 1001035464
!!!NIFC-islandoraID:
!!!URL-pdf-islandora:
!!!URL-scan: https://bc.bdsandomierz.pl/dlibra/publication/1364/edition/1332/content @EN{Scan on Cyfrowa Biblioteka Diecezjalna w Sandomierzu} @PL{Skany w portalu Cyfrowa Biblioteka Diecezjalna w Sandomierzu}
!!!ONB-nifc: UWAGA: części Mszy: Kyrie, Gloria, Credo, Sanctus, Agnus, Dona
!!!AIN: 3 empty 1 organ 2 violn 1 vox
!!!key:
**kern	**fba	**kern	**kern	**kern	**text	**kern	**text	**kern	**kern
*part7	*	*part6	*part5	*part4	*part4	*part3	*part3	*part2	*part1
*	*	*group3	*group3	*group2	*	*group2	*	*group1	*group1
*staff7	*	*staff6	*staff5	*staff4	*staff4	*staff3	*staff3	*staff2	*staff1
*Iorgan	*	*Ivioln	*Ivioln	*Iempty	*	*Ivox	*	*Iempty	*Iempty
*I"Organo	*	*I"Violino 2do	*I"Violino 1mo	*I"Baſso	*	*I"Canto	*	*I"Clarino 2do ex D	*I"Clarino 1mo ex D
*I'org	*	*I'vl 2	*I'vl 1	*I'B	*	*I'C	*	*I'clno 2	*I'clno 1
*clefF4	*	*clefG2	*clefG2	*clefF4	*	*clefC1	*	*clefG2	*clefG2
*	*	*	*	*	*	*	*	*ITrd-1c-2	*ITrd-1c-2
*k[c#f#]	*	*k[c#f#]	*k[c#f#]	*k[f#c#]	*	*k[c#f#]	*	*k[f#c#]	*k[f#c#]
*D:	*	*D:	*D:	*D:	*	*D:	*	*D:	*D:
*M2/2	*	*M2/2	*M2/2	*M2/2	*	*M2/2	*	*M2/2	*M2/2
*met(c|)	*	*met(c|)	*met(c|)	*met(c|)	*	*met(c|)	*	*met(c|)	*met(c|)
=1	=1	=1	=1	=1	=1	=1	=1	=1	=1
*	*	*	*	*2\right	*	*2\right	*	*2\right	*2\right
!	!	!LO:TX:a:t=P:problem=krzyżyki cc# f#	!LO:TX:a:t=P:problem=krzyżyki cc# f#	!	!	!LO:TX:a:t=P:problem=krzyżyki cc# f#	!	!LO:TX:b:i:t=Credo	!LO:TX:b:i:t=Credo
!LO:TX:a:t=Allo	!	!LO:TX:a:i:t=Allo	!LO:TX:a:i:t=Allo	!	!	!	!	!	!
!LO:TX:b:i:t=Credo	!	!LO:TX:b:i:t=Credo	!LO:TX:b:i:t=Credo	!	!	!	!	!	!
4D\	.	4dd\	4dd\	2d\	Cre-	2ff#\	Cre-	2dd\	2ff#\
*	*	*2\right	*2\right	*	*	*	*	*	*
4F#\	.	2aa\	2aa\	.	.	.	.	.	.
4A\	.	.	.	2A\	.	2ee\	.	2rg	2r
4AA/	.	4cc#\	4cc#\	.	.	.	.	.	.
=2	=2	=2	=2	=2	=2	=2	=2	=2	=2
4D\	.	4dd\	4dd\	2D\	-do	2dd\	-do	4dd\	4ff#\
4F#\	.	2a\	2a\	.	.	.	.	2ff#\	2aa\
4C#/	.	.	.	4r	.	4r	.	.	.
4AA/	.	4cc#\	4cc#\	4A\	in	4ee\	in	4a/	4ee\
=3	=3	=3	=3	=3	=3	=3	=3	=3	=3
4D\	.	4dd\	4dd\	2d\	u-	2ff#\	u-	2dd\	2ff#\
4F#\	.	2aa\	2aa\	.	.	.	.	.	.
4A\	.	.	.	2A\	-num	2ee\	-num	2rg	2r
4AA/	.	4cc#\	4cc#\	.	.	.	.	.	.
=4	=4	=4	=4	=4	=4	=4	=4	=4	=4
4D\	.	4dd\	4dd\	4D/	De-	4dd\	De-	4dd\	4ff#\
4F#\	.	2a\	2a\	4D/	-um	4a\	-um	2ff#\	2aa\
4C#/	.	.	.	4r	.	4r	.	.	.
4AA/	.	4cc#\	4ee 4cc#\	4A\	pa-	4ee\	Pa-	4a/	4ee\
=5	=5	=5	=5	=5	=5	=5	=5	=5	=5
4D\	.	8dd\L	8ff#\L	4d\	-trem	4ff#\	-trem	4dd\	4ff#\
.	.	8ff#\	8aa\	.	.	.	.	.	.
4D\	.	8ff#\	8aa\	4D/	om-	4ff#\	om-	4ff#\	4aa\
.	.	8ff#\J	8aa\J	.	.	.	.	.	.
*	*	*tremolo	*tremolo	*	*	*	*	*	*
4D\	.	8ff#\L	8aa\L	4F#\	-ni-	4ff#\	-ni-	2ff#\	4aa\
.	.	8ff#\	8aa\	.	.	.	.	.	.
4D\	.	8ff#\	8aa\	4A\	-po-	4ff#\	-po-	.	4aa\
.	.	8ff#\J	8aa\J	.	.	.	.	.	.
*	*	*Xtremolo	*Xtremolo	*	*	*	*	*	*
=6	=6	=6	=6	=6	=6	=6	=6	=6	=6
4D\	.	8ff#\L	8aa\L	4d\	-ten-	4ff#\	-ten-	2ff#\	2aa\
.	.	8dd\	8ff#\	.	.	.	.	.	.
4D\	.	8dd\	8ff#\	4D/	-tem	4ff#\	-tem	.	.
.	.	8a\J	8dd\J	.	.	.	.	.	.
4D\	.	4a/	8dd\L	4r	.	4r	.	2r	2r
.	.	.	8a\	.	.	.	.	.	.
4D\	.	4cc#\	8a\	4D/	fac-	4ff#\	fac-	.	.
.	.	.	8dd\J	.	.	.	.	.	.
=7	=7	=7	=7	=7	=7	=7	=7	=7	=7
4A\	.	8cc#\L	8ee\L	4A\	-to-	4ee\	-to-	4a/	4ee\
.	.	8ee\	8gg\	.	.	.	.	.	.
4A\	.	8ee\	8gg\	4A\	-rem	4ee\	-rem	4ee\	4gg\
.	.	8ee\J	8gg\J	.	.	.	.	.	.
*	*	*tremolo	*tremolo	*	*	*	*	*	*
4A\	.	8ee\L	8gg\L	4A\	ce-	4ee\	ce-	2ee\	2gg\
.	.	8ee\	8gg\	.	.	.	.	.	.
4A\	.	8ee\	8gg\	8A\	-li	8ee\	-li	.	.
.	.	8ee\J	8gg\J	8A\	et	8ee\	et	.	.
*	*	*Xtremolo	*Xtremolo	*	*	*	*	*	*
!	!	!	!	!LO:LB:g=original	!	!LO:LB:g=original	!	!	!
=8	=8	=8	=8	=8	=8	=8	=8	=8	=8
4A\	.	8ee\L	8gg\L	4A\	ter-	4ee\	ter-	2ee\	2gg\
.	.	8cc#\	8ee\	.	.	.	.	.	.
4A\	.	8cc#\	8ee\	4AA/	-re	4ee\	-rae	.	.
.	.	8a\J	8cc#\J	.	.	.	.	.	.
!	!	!	!LO:LB:g=original	!	!	!	!	!	!
4A\	.	4a\	8cc#\L	2rC	.	2r	.	2rg	2r
.	.	.	8a\	.	.	.	.	.	.
4A\	.	4cc#\	8a\	.	.	.	.	.	.
.	.	.	8cc#\J	.	.	.	.	.	.
!	!	!LO:LB:g=original	!	!	!	!	!	!	!LO:LB:g=original
=9	=9	=9	=9	=9	=9	=9	=9	=9	=9
4D/	.	4dd\	4dd\	4D\	vi-	4dd\	et	2dd\	2ff#\
4D/	.	4r	8ff#\L	4F#\	-si-	4dd\	in	.	.
.	.	.	8dd\J	.	.	.	.	.	.
4C#/	.	4ee\	4ee\	4C#/	-bi-	4ee\	u-	2a/	2ee\
4AA/	.	4r	8gg\L	4AA/	-li-	4ee\	-num	.	.
.	.	.	8ee\J	.	.	.	.	.	.
=10	=10	=10	=10	=10	=10	=10	=10	=10	=10
4D/	.	4ff#\	4ff#\	2D\	-um	4ff#\	Do-	2dd\	2ff#\
4D/	.	4r	8aa\L	.	.	4ff#\	-mi-	.	.
.	.	.	8ff#\J	.	.	.	.	.	.
4E/	.	4gg#X\	4gg#X\	4E\	om-	2gg#X\	-num	2r	2rg
4D/	.	4r	8bb\L	4D\	-ni-	.	.	.	.
.	.	.	8gg#\J	.	.	.	.	.	.
!	!	!	!	!	!	!	!	!LO:LB:g=original	!
=11	=11	=11	=11	=11	=11	=11	=11	=11	=11
!	!	!	!	!	!	!	!	!LO:TX:a:t=8	!LO:TX:a:t=6
4C#/	.	8aa\L	8aa\L	4C#/	-um	4aa\	Je-	00r	00r
.	.	8aa\	8aa\	.	.	.	.	.	.
4AA/	.	8aa\	8aa\	4r	.	4aa\	-sum	.	.
.	.	8aa\J	8aa\J	.	.	.	.	.	.
*	*	*tremolo	*tremolo	*	*	*	*	*	*
4AA/	.	8aa\L	8aa\L	4A\	et	4aa\	Chris-	.	.
.	.	8aa\	8aa\	.	.	.	.	.	.
4AA/	.	8aa\	8aa\	4A\	in-	4aa\	-tum	.	.
.	.	8aa\J	8aa\J	.	.	.	.	.	.
=12	=12	=12	=12	=12	=12	=12	=12	=12	=12
4AA/	.	8aa\L	8ccc#\L	2A\	-vi-	4aa\	Fi-	.	.
.	.	8aa\	8ccc#\	.	.	.	.	.	.
4A\	.	8aa\	8ccc#\	.	.	8aa\	-li-	.	.
.	.	8aa\J	8ccc#\J	.	.	8aa\	-um	.	.
4A\	.	8aa\L	8ccc#\L	2A\	-si-	4aa\	De-	.	.
.	.	8aa\	8ccc#\	.	.	.	.	.	.
4A\	.	8aa\	8ccc#\	.	.	4aa\	-i	.	.
.	.	8aa\J	8ccc#\J	.	.	.	.	.	.
*	*	*Xtremolo	*Xtremolo	*	*	*	*	*	*
=13	=13	=13	=13	=13	=13	=13	=13	=13	=13
4A\	.	8ccc#\L	8ccc#\L	4A\	-bi-	4ee\	u-	.	.
.	.	8aa\	8aa\	.	.	.	.	.	.
4D\	6	8ddd\	8ddd\	4D\	-li-	8ff#\	-ni-	.	.
.	.	8bb\J	8bb\J	.	.	8dd\	-ge-	.	.
4E\	4	4aa\	4ccc#\	4.E\	.	4cc#\	-ni-	.	.
4EE/	3	4gg#X\	4bb\	.	.	4b\	-tum	.	.
.	.	.	.	8E\	.	.	.	.	.
!LO:LB:g=original	!	!	!	!	!	!	!	!	!
=14	=14	=14	=14	=14	=14	=14	=14	=14	=14
4AA/	.	8aa\L	8aa\L	4AA/	-um	4cc#\	de-	.	.
.	.	8ee\	8ee\	.	.	.	.	.	.
4AA/	.	8ee\	8ee\	4c#\	et	4ee\	.	.	.
.	.	8ee\J	8ee\J	.	.	.	.	.	.
4C#/	.	8ee\L	8ee\L	8c#\L	ex	(8ee\L	-um	.	.
.	.	8cc#\	8cc#\	8A\J	.	8cc#\J)	.	.	.
4AA/	.	8dd\	8dd\	8B\L	pa-	(8cc#\L	de	.	.
.	.	8ee\J	8ee\J	8c#\J	-tre	8ee\J)	.	.	.
!	!	!	!	!	!	!LO:LB:g=original	!	!	!
=15	=15	=15	=15	=15	=15	=15	=15	=15	=15
4D\	.	4ff#\	4ff#\	4d\	na-	4ff#\	De-	00r	0r
4D\	.	2dd\	2dd\	4D/	-tum	2dd\	-o	.	.
4E\	.	.	.	4E/	an-	.	.	.	.
4F#\	.	4ccn\	4ccn\	4F#/	-te	4ccn\	lu-	.	.
!	!	!	!	!LO:LB:g=original	!	!	!	!	!
=16	=16	=16	=16	=16	=16	=16	=16	=16	=16
4G\	.	4b\	4b\	4G\	om-	4b\	-men	.	.
4G\	.	8gg\L	8gg\L	8G\	-ni-	(8gg\L	de	.	.
.	.	8ff#\J	8ff#\J	8G\	-a	8ff#\J)	.	.	.
!	!	!	!LO:LB:g=original	!	!	!	!	!	!
4G\	.	8ee\L	8ee\L	4G\	se-	(8ee\L	lu-	.	.
.	.	8dd\	8dd\	.	.	8dd\J)	.	.	.
4G#X\	6	8cc#\	8cc#\	4G#X\	-cu-	(8cc#\L	-mi-	.	.
.	5	8b\J	8b\J	.	.	8b\J)	.	.	.
=17	=17	=17	=17	=17	=17	=17	=17	=17	=17
!LO:TX:a:t=P:problem=dwa zbędne takty pauz w clno 2	!	!LO:TX:a:t=P:problem=dwa zbędne takty pauz w clno 2	!LO:TX:a:t=P:problem=dwa zbędne takty pauz w clno 2	!LO:TX:a:t=P:problem=dwa zbędne takty pauz w clno 2	!	!LO:TX:a:t=P:problem=dwa zbędne takty pauz w clno 2	!	!LO:TX:a:t=P:problem=dwa zbędne takty pauz	!LO:TX:a:t=P:problem=dwa zbędne takty pauz w clno 2
1ryy	.	1ryy	1ryy	1ryy	.	1ryy	.	.	1ryy
=18	=18	=18	=18	=18	=18	=18	=18	=18	=18
1ryy	.	1ryy	1ryy	1ryy	.	1ryy	.	.	1ryy
=19	=19	=19	=19	=19	=19	=19	=19	=19	=19
4A\	.	8cc#\L	8cc#\L	4A\	-la	4a\	-ne	4r	4r
.	.	8a\	8a\	.	.	.	.	.	.
4A\	.	8ff#\	8aa\	8A\	ge-	8ff#\	De-	4ff#\	4aa\
.	.	8dd\J	8ff#\J	8A\	-ni-	8ff#\	-um	.	.
4c#\	.	8cc#\L	8ee\L	4A\	-tum	4ee\	ve-	4r	4r
.	.	8a\	8a\	.	.	.	.	.	.
4A\	.	8ee\	8gg\	4c#\	non	4ee\	-rum	4ee\	4gg\
.	.	8cc#\J	8ee\J	.	.	.	.	.	.
!	!	!LO:LB:g=original	!	!	!	!	!	!	!
=20	=20	=20	=20	=20	=20	=20	=20	=20	=20
!	!	!	!LO:TX:a:t=P:problem=mixed beam	!	!	!	!	!	!
4d\	.	8cc#\L	8ff#\L	4d\	fac-	4ff#\	de	4r	4r
.	.	8a\	8a/	.	.	.	.	.	.
4D\	.	8ff#\	8aa\	4D/	-tum	8ff#\	De-	4ff#\	4aa\
.	.	8dd\J	8ff#\J	.	.	8ff#\	-o	.	.
!	!	!	!LO:TX:a:t=P:problem=mixed beam	!	!	!	!	!	!
4A\	.	8cc#\L	8ee\L	4A\	con-	4ee\	ve-	4r	4r
.	.	8a\	8a/	.	.	.	.	.	.
4AA/	.	8ee\	8gg\	4C#/	-sub-	4ee\	-ro	4ee\	4gg\
.	.	8cc#\J	8ee\J	.	.	.	.	.	.
=21	=21	=21	=21	=21	=21	=21	=21	=21	=21
4D\	.	4dd\	8ff#\L	8D/	-stan-	4ff#\	Cre-	4dd\	4ff#\
.	.	.	8dd\	8A\	-ti-	.	.	.	.
4G\	6	4ee\	8gg\	8B\	-a-	4gg\	-do	4ee\	4gg\
.	.	.	8ee\J	8G\	-lem	.	.	.	.
4A\	6 4	4dd\	4ff#\	4A\	Pa-	4ff#\	Cre-	4dd\	4ff#\
4AA/	x 3	4cc#\	4ee\	4AA/	-tri	4ee\	-do	4a/	4ee\
=22	=22	=22	=22	=22	=22	=22	=22	=22	=22
!	!	!	!	!	!	!	!	!	!LO:N:vis=2
4D\	.	4dd\	4dd\	4D/	qui	4dd\	qui	2dd\	1ff#
4F#\	.	2aa\	2aa\	4d\	p(ro)-	4ff#\	p(ro)-	.	.
4A\	.	.	.	4d\	-pter	4ff#\	-pter	2rg	.
4AA/	.	4cc#\	4cc#\	4A\	.	4ee\	nos	.	.
=23	=23	=23	=23	=23	=23	=23	=23	=23	=23
4D\	.	4dd\	4dd\	4D\	nos	4dd\	ho-	4dd\	4ff#\
4F#\	.	2a/	2a/	2F#\	ho-	2a\	-mi-	2ff#\	2aa\
4C#/	.	.	.	.	.	.	.	.	.
4AA/	.	4cc#\	4cc#\	4AA/	-mi-	4cc#\	-nes	4a/	4ee\
!	!	!	!	!	!	!LO:LB:g=original	!	!	!
=24	=24	=24	=24	=24	=24	=24	=24	=24	=24
4D\	.	4dd\	4dd\	4D\	-nes	4dd\	et	2dd\	2ff#\
4D\	.	2aa\	2aa\	4D\	et	4ff#\	p(ro)-	.	.
!	!	!	!	!LO:LB:g=original	!	!	!	!	!
4F#\	.	.	.	4F#\	p(ro)-	4ff#\	-pter	2rg	2r
4D\	.	4ccn\	4ccn\	4D\	-pter	4a\	nos-	.	.
=25	=25	=25	=25	=25	=25	=25	=25	=25	=25
!	!	!	!	!	!	!	!	!LO:TX:a:t=4	!LO:TX:a:t=4
4G\	.	4b\	4b\	4G\	nos-	4b\	-tram	00r	00r
4G\	.	8gg\L	8bb\L	8G\	-tram	8gg\	sa-	.	.
.	.	8ff#\J	8aa\J	8G\	sa-	8ff#\	-lu-	.	.
4G\	.	8ee\L	8gg\L	2G#X\	-lu-	(8ee\L	.	.	.
.	.	8dd\	8ff#\	.	.	8dd\J)	.	.	.
4G\	.	8cc#\	8ee\	.	.	(8cc#\L	.	.	.
.	.	8b\J	8dd\J	.	.	8b\J)	.	.	.
=26	=26	=26	=26	=26	=26	=26	=26	=26	=26
!	!	!LO:TX:a:t=P:problem=mixed beam	!	!	!	!	!	!	!
4A\	.	8cc#/L	4cc#\	2A\	-tem	4a\	-tem	.	.
.	.	8a/	.	.	.	.	.	.	.
4AA/	.	8aa\	4a\	.	.	4r	.	.	.
.	.	8aa\J	.	.	.	.	.	.	.
*	*	*tremolo	*	*	*	*	*	*	*
4AA/	.	8aa\L	4aa\	4r	.	4r	.	.	.
.	.	8aa\	.	.	.	.	.	.	.
4AA/	.	8aa\	4aa\	4c#\	de-	4ee\	de-	.	.
.	.	8aa\J	.	.	.	.	.	.	.
=27	=27	=27	=27	=27	=27	=27	=27	=27	=27
4d\	.	8aa\L	8aa\L	4d\	-scen-	4ff#\	-scen-	.	.
.	.	8aa\	8aa\	.	.	.	.	.	.
8D/L	.	8aa\	8aa\	4D/	-dit	4ff#\	-dit	.	.
8E/J	.	8aa\J	8aa\J	.	.	.	.	.	.
!	!	!	!LO:LB:g=original	!	!	!	!	!	!
4F#\	.	8aa\L	8aa\L	4r	.	4r	.	.	.
.	.	8aa\	8aa\	.	.	.	.	.	.
4D\	.	8aa\	8aa\	4d\	de	4ff#\	de	.	.
!	!	!LO:TX:a:t=P:problem=po tym takcie skreślony takt	!	!	!	!	!	!	!
.	.	8aa\J	8aa\J	.	.	.	.	.	.
=28	=28	=28	=28	=28	=28	=28	=28	=28	=28
*	*	*	*tremolo	*	*	*	*	*	*
4A\	.	8aa\L	8aa\L	4c#\	ce-	4ee\	ce-	.	.
.	.	8aa\	8aa\	.	.	.	.	.	.
8A\L	.	8aa\	8aa\	4c#\	-lis	4ee\	-lis	.	.
8B\J	.	8aa\J	8aa\J	.	.	.	.	.	.
4c#\	.	8aa\L	8aa\L	4r	.	4r	.	.	.
.	.	8aa\	8aa\	.	.	.	.	.	.
4A\	.	8aa\	8aa\	4c#\	de-	4ee\	de-	.	.
.	.	8aa\J	8aa\J	.	.	.	.	.	.
=29	=29	=29	=29	=29	=29	=29	=29	=29	=29
4d\	.	8aa\L	8aa\L	4d\	-scen-	4ff#\	-scen-	4ff#\	4aa\
.	.	8aa\	8aa\	.	.	.	.	.	.
8D/L	.	8aa\	8aa\	4D/	-dit	4ff#\	-dit	4ff#\	4aa\
8E/J	.	8aa\J	8aa\J	.	.	.	.	.	.
!	!	!LO:LB:g=original	!	!	!	!	!	!	!
4F#/	.	8aa\L	8aa\L	4r	.	4r	.	4r	4r
.	.	8aa\	8aa\	.	.	.	.	.	.
4D/	.	8aa\	8aa\	4d\	de-	4ff#\	de-	4ff#\	4aa\
.	.	8aa\J	8aa\J	.	.	.	.	.	.
*	*	*Xtremolo	*Xtremolo	*	*	*	*	*	*
!LO:LB:g=original	!	!	!	!	!	!	!	!	!LO:LB:g=original
=30	=30	=30	=30	=30	=30	=30	=30	=30	=30
4E\	.	8ee\L	8gg\L	4e\	-scen-	1gg	-scen-	4ee\	4gg\
.	.	8ee\	8gg\	.	.	.	.	.	.
4D\	.	8ee\	8gg\	4d\	.	.	.	4ee\	4gg\
.	.	8ee\J	8gg\J	.	.	.	.	.	.
*	*	*tremolo	*tremolo	*	*	*	*	*	*
4C#/	.	8ee\L	8gg\L	4c#\	-dit	.	.	4r	4r
.	.	8ee\	8gg\	.	.	.	.	.	.
4AA/	.	8ee\	8gg\	4A\	de-	.	.	4ee\	4gg\
.	.	8ee\J	8gg\J	.	.	.	.	.	.
*	*	*	*Xtremolo	*	*	*	*	*	*
=31	=31	=31	=31	=31	=31	=31	=31	=31	=31
4D\	.	8dd\L	8ff#\L	4D\	-scen-	2ff#\	-dit	4dd\	4ff#\
.	.	8dd\	8ff#\	.	.	.	.	.	.
4E\	.	8dd\	8ff#\	4E\	.	.	.	4dd\	4ff#\
.	.	8dd\J	8ff#\J	.	.	.	.	.	.
*	*	*	*tremolo	*	*	*	*	*	*
4F#\	.	8dd\L	8ff#\L	4F#\	-dit	2ff#\	de-	4r	4r
.	.	8dd\	8ff#\	.	.	.	.	.	.
4G\	.	8dd\	8ff#\	4G\	de	.	.	4dd\	4ff#\
.	.	8dd\J	8ff#\J	.	.	.	.	.	.
*	*	*Xtremolo	*Xtremolo	*	*	*	*	*	*
!	!	!	!	!	!	!LO:LB:g=original	!	!LO:LB:g=original	!
=32	=32	=32	=32	=32	=32	=32	=32	=32	=32
*2\right	*	*	*	*	*	*	*	*	*
2A\	6 4	8ee\L	8ee\L	2A\	ce-	8ee\L	-scen-	4a/	4ee\
.	.	8gg\	8gg\	.	.	8gg\J	.	.	.
.	.	8ff#\	8ff#\	.	.	8ff#\	-dit	4ee\	4gg\
.	x 3	8ee\J	8ee\J	.	.	8ee\	de	.	.
2AA/	.	4dd\	4dd\	2AA/	.	(4dd\	ce-	4dd\	4ff#\
.	.	4cc#\	4cc#\	.	.	4cc#\)	.	4a/	4ee\
=33	=33	=33	=33	=33	=33	=33	=33	=33	=33
2D	.	2dd\	2dd\	2D\	-lis	2dd\	-lis	2f#/	2dd\
2ryy	.	2rg	2rg	2r	.	2r	.	2rg	2r
!	!	!	!	!LO:LB:g=original	!	!	!	!	!
=34||	=34||	=34||	=34||	=34||	=34||	=34||	=34||	=34||	=34||
*clefF4	*	*clefG2	*clefG2	*	*	*	*	*	*
*k[f#]	*	*k[f#]	*k[f#]	*k[f#]	*	*k[f#]	*	*	*
*M3/4	*	*M3/4	*M3/4	*M3/4	*	*M3/4	*	*	*
!	!	!LO:TX:b:i:t=Et incarnatus	!	!	!	!	!	!	!
!	!	!LO:TX:a:i:t=Adagio	!LO:TX:a:t=P:problem=krzyżyk f#	!	!	!	!	!	!
!LO:TX:b:t=Et incarnatus est	!	!LO:TX:a:t=P:problem=krzyżyk f#	!LO:TX:a:i:t=Ada Solo	!LO:TX:a:t=Solo	!	!LO:TX:a:t=Solo	!	!	!
!LO:TX:a:t=Ada	!	!	!LO:TX:b:i:t=Et incarnatus	!LO:TX:a:t=Ada	!	!LO:TX:a:t=Ada	!	!LO:TX:a:i:t=Et incarnatus est Tacet	!LO:TX:a:i:t=Et incarnatus est Tacett
4G\	.	4b\	4dd\	4B\	Et	4dd\	Et	2.ryy	2.ryy
4G\	.	8b\L	8dd\L	8B\	in-	8dd\	in-	.	.
.	.	8cc\	8ee\	8c\	-car-	8ee\	-car-	.	.
4D\	.	8b\	8dd\	8B\	-na-	8dd\	-na-	.	.
.	.	8a\J	8cc\J	8A\	-tus	8cc\	-tus	.	.
=35	=35	=35	=35	=35	=35	=35	=35	=35	=35
4GG/	.	4g/	4b\	8G\	est	8b\	est	2.ryy	2.ryy
.	.	.	.	8G\	de	8b\	de	.	.
4G\	.	8g/L	8.b\L	8.G\L	spi-	8.b\L	Spi-	.	.
.	.	16a/L	.	.	.	.	.	.	.
.	.	16b/JJ	32cc\LL	32A\LL	.	32cc\LL	.	.	.
.	.	.	32dd\JJJ	32B\JJJ	.	32dd\JJJ	.	.	.
!	!	!	!LO:LB:g=original	!	!	!	!	!	!
8F#\L	5	8a/L	8cc\L	8A\	-ri-	8cc\	-ri-	.	.
8G\J	#	8g/J	8b\J	8G\	-tu	8a\	-tu	.	.
=36	=36	=36	=36	=36	=36	=36	=36	=36	=36
4D\	.	4g/	4b/	4G\	San-	4b\	San-	2.ryy	2.ryy
4D\	.	4f#/	4a/	4F#\	-cto	4a\	-cto	.	.
4D\	.	4f#/	4a/	8F#\	ex	8a\	ex	.	.
.	.	.	.	8F#\	Ma-	8a\	ma-	.	.
!	!	!	!	!	!	!LO:LB:g=original	!	!	!
=37	=37	=37	=37	=37	=37	=37	=37	=37	=37
4G\	.	4.g/	4.b/	4.G\	-ri-	4.b\	-ri-	2.ryy	2.ryy
8GG/L	.	.	.	.	.	.	.	.	.
8AA/	.	8f#/L	8a/L	8F#\	-a	8a\	-a	.	.
8BB/	.	8g/	8b/	8G\	vir-	8b\	vir-	.	.
8C/J	.	8e/J	8g/J	8E\	-gi-	8g\	-gi-	.	.
=38	=38	=38	=38	=38	=38	=38	=38	=38	=38
4D\	.	8f#/L	8a/L	8F#\	-ne	8a\	-ne	2.ryy	2.ryy
.	.	8d/J	8d/J	8D\	et	8a\	et	.	.
4D\	.	4a/	4cc\	4A\	ho-	4cc\	ho-	.	.
4D\	.	4a/	4cc\	4A\	-mo	4cc\	-mo	.	.
!	!	!LO:LB:g=original	!	!	!	!	!	!	!
=39	=39	=39	=39	=39	=39	=39	=39	=39	=39
4G\	.	8g/L	8b\L	2G\	ho-	2b\	ho-	2.ryy	2.ryy
.	.	8g/	8b\	.	.	.	.	.	.
4GG/	.	8g/	8b\	.	.	.	.	.	.
.	.	8g/	8b\	.	.	.	.	.	.
4GG/	.	8g/	8b\	4G\	-mo	4b\	-mo	.	.
.	.	8g/J	8b\J	.	.	.	.	.	.
!	!	!	!	!LO:LB:g=original	!	!	!	!	!
=40	=40	=40	=40	=40	=40	=40	=40	=40	=40
*	*	*tremolo	*tremolo	*	*	*	*	*	*
4D\	.	8f#/L	8a/L	2F#\	fac-	2a\	fac-	2.ryy	2.ryy
.	.	8f#/	8a/	.	.	.	.	.	.
4D\	.	8f#/	8a/	.	.	.	.	.	.
.	.	8f#/	8a/	.	.	.	.	.	.
4D\	.	8f#/	8a/	4F#\	-tus	4a\	-tus	.	.
.	.	8f#/J	8a/J	.	.	.	.	.	.
*	*	*Xtremolo	*Xtremolo	*	*	*	*	*	*
=41	=41	=41	=41	=41	=41	=41	=41	=41	=41
4G\	.	4g/	4g/	4G\	est	4g\	est	2.ryy	2.ryy
4G\	.	8dd\L	8dd\L	8B\L	Cru-	8dd\L	Cru-	.	.
.	.	8cc\	8cc\	8A\J	.	8cc\J	.	.	.
4G\	.	8dd\	8dd\	8B\L	-ci-	8dd\L	-ci-	.	.
.	.	8b\J	8b\J	8G\J	.	8b\J	.	.	.
=42	=42	=42	=42	=42	=42	=42	=42	=42	=42
4G\	.	4cc\	4ee\	4c\	-fi-	4ee\	-fi-	2.ryy	2.ryy
4G\	.	4b\	4dd\	4B\	-xus	4dd\	-xus	.	.
4G\	7	4dd\	4ffn\	8d\	Cru-	8ffn\	Cru-	.	.
.	.	.	.	8d\	-ci-	8ff\	-ci-	.	.
=43	=43	=43	=43	=43	=43	=43	=43	=43	=43
4c\	.	4cc\	4ee\	4c\	-fi-	4ee\	-fi-	2.ryy	2.ryy
4G\	.	4b\	4dd\	4B\	-xus	4dd\	-xus	.	.
4B\	.	4r	4r	4r	.	4r	.	.	.
=44	=44	=44	=44	=44	=44	=44	=44	=44	=44
4c\	.	8g/L	8ee\L	8G\	e-	8ee\	e-	2.ryy	2.ryy
.	.	8fn/	8dd\J	8F#\	-ti-	8dd\	-ti-	.	.
!LO:LB:g=original	!	!	!	!	!	!	!	!	!
4G\	4	8e/	8cc\L	8E\	-am	8cc\	-am	.	.
.	3	8f/J	8dd\J	8F#\	pro	8dd\	pro	.	.
!	!	!	!	!	!	!LO:LB:g=original	!	!	!
4GG/	.	4d/	4b\	4D\	-no-	4b\	no-	.	.
=45	=45	=45	=45	=45	=45	=45	=45	=45	=45
8C/L	.	2e/	2cc\	2E\	-bis	2cc\	-bis	2.ryy	2.ryy
8C/	.	.	.	.	.	.	.	.	.
8C/	.	.	.	.	.	.	.	.	.
8C/	.	.	.	.	.	.	.	.	.
8C/	.	4cc\	4ee\	4c\	sub	4ee\	sub	.	.
8C/J	.	.	.	.	.	.	.	.	.
!	!	!	!LO:LB:g=original	!	!	!	!	!	!
=46	=46	=46	=46	=46	=46	=46	=46	=46	=46
*tremolo	*	*	*	*	*	*	*	*	*
8G\L	.	4b/	8dd\L	4.B\	pon-	4.dd\	pon-	2.ryy	2.ryy
8G\	.	.	8dd\J	.	.	.	.	.	.
8G\	.	8b/L	4cc\	.	.	.	.	.	.
8G\J	.	8b/	.	8B\	-ti-	8dd\	-ti-	.	.
*Xtremolo	*	*	*	*	*	*	*	*	*
8F#X\L	5	8a/	8cc\L	8A\	-o	8cc\	-o	.	.
8G\J	#	8g/J	8b\J	8G\	Pi-	8b\	pi-	.	.
=47	=47	=47	=47	=47	=47	=47	=47	=47	=47
4d\	.	4g/	4b/	4G\	-la-	4b\	-la-	2.ryy	2.ryy
4D/	.	4f#X/	4a/	4F#\	-to	4a\	-to	.	.
4r	.	4dd\	4dd\	4r	.	8dd\	paſ-	.	.
.	.	.	.	.	.	8dd\	-sus	.	.
!	!	!	!	!LO:LB:g=original	!	!	!	!	!
=48	=48	=48	=48	=48	=48	=48	=48	=48	=48
4G\	-	2.b-X\	2.gg\	2.B-X\	Paſ-	2.gg\	paſ-	2.ryy	2.ryy
4F#\	.	.	.	.	.	.	.	.	.
4E-X\	.	.	.	.	.	.	.	.	.
=49	=49	=49	=49	=49	=49	=49	=49	=49	=49
4D/	.	2.b\	2.gg\	2.B\	-sus	2.gg\	-sus	2.ryy	2.ryy
4C/	.	.	.	.	.	.	.	.	.
4BB-X/	6	.	.	.	.	.	.	.	.
=50	=50	=50	=50	=50	=50	=50	=50	=50	=50
4C/	.	8a/L	8cc\L	8A\	et	8cc\	et	2.ryy	2.ryy
.	.	8a/J	8cc\J	8A\	se-	8cc\	se-	.	.
!	!	!LO:LB:g=original	!	!	!	!	!	!	!
4D/	6 4	8g/L	4b-X/	4G\	-pul-	4b-X\	-pul-	.	.
.	x 3	8f#/J	.	.	.	.	.	.	.
4DD/	.	4f#/	4a/	4F#\	-tus	4a\	-tus	.	.
=51	=51	=51	=51	=51	=51	=51	=51	=51	=51
2.GG/	.	4g/	2g/	2.G\	est	2.g\	est	2.ryy	2.ryy
.	.	4r	.	.	.	.	.	.	.
.	.	4r	4r	.	.	.	.	.	.
!	!	!	!	!	!	!LO:LB:g=original	!	!LO:LB:g=original	!LO:LB:g=original
=52||	=52||	=52||	=52||	=52||	=52||	=52||	=52||	=52||	=52||
*clefF4	*	*clefG2	*clefG2	*clefF4	*	*	*	*	*
*k[f#c#]	*	*k[c#f#]	*k[c#f#]	*k[c#f#]	*	*k[c#f#]	*	*k[f#c#]	*k[f#c#]
*M2/2	*	*M2/2	*M2/2	*M2/2	*	*M2/2	*	*M2/2	*M2/2
*met(c|)	*	*met(c|)	*met(c|)	*met(c|)	*	*met(c|)	*	*met(c|)	*met(c|)
!	!	!LO:TX:b:i:t=Et resurexit	!LO:TX:b:i:t=et resurexit	!	!	!	!	!	!
!	!	!LO:TX:a:i:t=Allo	!LO:TX:a:i:t=Allo	!LO:TX:a:t=Allo	!	!	!	!LO:TX:b:i:t=Et resurexit	!LO:TX:b:i:t=Et resurexit
!LO:TX:b:i:t=Et resurexit	!	!LO:TX:a:t=P:problem=krzyżyki cc# f#	!	!	!	!LO:TX:a:t=P:problem=krzyżyki cc# f#	!	!LO:TX:a:t=Allo	!LO:TX:a:t=Allo
!LO:TX:a:i:t=Allo	!	!	!LO:TX:a:t=P:problem=krzyżyki cc# f#	!	!	!	!	!	!
4D\	.	2d/	2d/	2D\	Et	2d/	et	2d/	2d/
4D\	.	.	.	.	.	.	.	.	.
4F#\	.	4f#/	4f#/	4F#\	re-	4f#/	re-	4f#/	4f#/
4A\	.	4a/	4a/	4A\	-su-	4a/	-su-	4a/	4a/
=53	=53	=53	=53	=53	=53	=53	=53	=53	=53
4d\	.	4dd\	4dd\	4d\	-re-	4dd\	-re-	2f#/	2dd\
4D/	.	4d/	4d/	4D\	-xit	4d/	-xit	.	.
4D/	.	4ff#\	4ff#\	4d\	Su-	4dd\	re-	4dd\	4ff#\
4D/	.	4gg\	4gg\	4d\	-re-	4dd\	-su-	4ee\	4gg\
=54	=54	=54	=54	=54	=54	=54	=54	=54	=54
4D/	.	2aa\	2aa\	1d	-xit	1dd	-re-	2ff#\	2aa\
4D/	.	.	.	.	.	.	.	.	.
4D/	.	4bb\	4bb\	.	.	.	.	2r	2r
4D/	.	4ccc#\	4ccc#\	.	.	.	.	.	.
=55	=55	=55	=55	=55	=55	=55	=55	=55	=55
4D/	.	8ddd\L	8ddd\L	2D\	ter-	2dd\	-xit	4dd\	4ff#\
.	.	8dd\	8dd\	.	.	.	.	.	.
4D/	.	8dd\	8dd\	.	.	.	.	4dd\	4ff#\
.	.	8dd\J	8dd\J	.	.	.	.	.	.
8D/L	.	8dd\L	8dd\L	8D\L	-ti-	8ff#\L	ter-	4dd\	4ff#\
8E/	.	8dd\	8dd\	8E\J	.	8ee\J	.	.	.
8F#/	.	8dd\	8dd\	8F#\L	-a	8ff#\	-ti-	4dd\	4ff#\
8G/J	.	8ddd\J	8ddd\J	8G\J	.	8dd\	-a	.	.
!	!	!	!LO:LB:g=original	!	!	!	!	!	!
=56	=56	=56	=56	=56	=56	=56	=56	=56	=56
4A\	.	8ccc#\L	8ccc#\L	4A\	di-	4ee\	di-	4a/	4ee\
.	.	8aa\	8aa\	.	.	.	.	.	.
4AA/	.	8aa\	8aa\	4AA/	-e	4ee\	-e	4a/	4ee\
.	.	8aa\J	8aa\J	.	.	.	.	.	.
*	*	*tremolo	*tremolo	*	*	*	*	*	*
!	!	!	!	!LO:LB:g=original	!	!	!	!	!
4AA/	.	8aa\L	8aa\L	4r	.	4r	.	4a/	4ee\
.	.	8aa\	8aa\	.	.	.	.	.	.
4AA/	.	8aa\	8aa\	8A\	et	4ff#\	se-	4r	4r
.	.	8aa\J	8aa\J	8A\	as-	.	.	.	.
*	*	*	*Xtremolo	*	*	*	*	*	*
!LO:LB:g=original	!	!	!	!	!	!	!	!	!
=57	=57	=57	=57	=57	=57	=57	=57	=57	=57
4AA/	.	8gg\L	8bb\L	2A\	-cen-	4gg\	-cun-	4r	4r
.	.	8gg\	8bb\	.	.	.	.	.	.
4AA/	.	8gg\	8bb\	.	.	4ee\	-dum	4ee\	4gg\
.	.	8gg\J	8bb\J	.	.	.	.	.	.
*	*	*	*tremolo	*	*	*	*	*	*
4AA/	.	8gg\L	8bb\L	4A\	-dit	4r	.	4ee\	4gg\
.	.	8gg\	8bb\	.	.	.	.	.	.
4AA/	.	8gg\	8bb\	4A\	in	4ee\	Scrip-	4r	4r
.	.	8gg\J	8bb\J	.	.	.	.	.	.
*	*	*	*Xtremolo	*	*	*	*	*	*
=58	=58	=58	=58	=58	=58	=58	=58	=58	=58
4AA/	.	8ff#\L	8aa\L	4A\	ce-	4ff#\	-tu-	4r	4r
.	.	8ff#\	8aa\	.	.	.	.	.	.
4AA/	.	8ff#\	8aa\	8A\	-lum	4dd\	-ras	4dd\	4ff#\
.	.	8ff#\J	8aa\J	8A\	et	.	.	.	.
*	*	*	*tremolo	*	*	*	*	*	*
4AA/	.	8ff#\L	8aa\L	4A\	i-	4dd\	et	4dd\	4ff#\
.	.	8ff#\	8aa\	.	.	.	.	.	.
4AA/	.	8ff#\	8aa\	4A\	-te-	8dd\	as-	4r	4r
.	.	8ff#\J	8aa\J	.	.	8dd\	-cen-	.	.
*	*	*Xtremolo	*	*	*	*	*	*	*
!	!	!LO:LB:g=original	!	!	!	!	!	!	!
=59	=59	=59	=59	=59	=59	=59	=59	=59	=59
4AA/	.	8ee\L	8gg\L	2A\	-rum	4ee\	-dit	4r	4r
.	.	8ee\	8ee\	.	.	.	.	.	.
4AA/	.	8ee\	8ee\	.	.	4cc#\	in	4a/	4ee\
.	.	8ee\J	8ee\J	.	.	.	.	.	.
*	*	*tremolo	*	*	*	*	*	*	*
!	!	!	!	!	!	!LO:LB:g=original	!	!	!
4AA/	.	8ee\L	8ee\L	2A\	ven-	2cc#\	cel-	4a/	4ee\
.	.	8ee\	8ee\	.	.	.	.	.	.
4AA/	.	8ee\	8ee\	.	.	.	.	4r	4r
.	.	8ee\J	8ee\J	.	.	.	.	.	.
=60	=60	=60	=60	=60	=60	=60	=60	=60	=60
4AA/	.	8dd\L	8ff#\L	2A\	-tu-	2dd\	-lum	4r	4r
.	.	8dd\	8dd\	.	.	.	.	.	.
4AA/	.	8dd\	8dd\	.	.	.	.	4dd\	4ff#\
.	.	8dd\J	8dd\J	.	.	.	.	.	.
4AA/	.	8dd\L	8dd\L	2A\	-rus	2ff#\	Pa-	4f#/	4dd\
.	.	8dd\	8dd\	.	.	.	.	.	.
4AA/	.	8dd\	8dd\	.	.	.	.	4r	4r
.	.	8dd\J	8dd\J	.	.	.	.	.	.
*	*	*Xtremolo	*Xtremolo	*	*	*	*	*	*
!	!	!	!	!	!	!	!	!LO:LB:g=original	!LO:LB:g=original
=61	=61	=61	=61	=61	=61	=61	=61	=61	=61
4A\	.	8cc#\L	8cc#\L	4A\	est	4ee\	-tris	4r	4r
.	.	8a\	8a\	.	.	.	.	.	.
4AA/	.	8ff#\	8aa\	4A\	cum	4ff#\	cum	4ff#\	4aa\
.	.	8dd\J	8ff#\J	.	.	.	.	.	.
4C#/	.	8cc#\L	8ee\L	4A\	glo-	4ee\	glo-	4r	4r
.	.	8a\	8cc#\	.	.	.	.	.	.
4AA/	.	8ee\	8gg\	4c#\	-ri-	4ee\	-ri-	4ee\	4gg\
.	.	8cc#\J	8ee\J	.	.	.	.	.	.
=62	=62	=62	=62	=62	=62	=62	=62	=62	=62
4d\	.	8dd\L	8ff#\L	4d\	-a	4ff#\	-a	4r	4r
.	.	8a\	8dd\	.	.	.	.	.	.
4D/	.	8ff#\	8aa\	4D/	cum	4ff#\	Cum	4ff#\	4aa\
.	.	8dd\J	8ff#\J	.	.	.	.	.	.
4A\	.	8cc#\L	8ee\L	4A\	glo-	4ee\	glo-	4r	4r
.	.	8a\	8cc#\	.	.	.	.	.	.
4c#\	.	8ee\	8gg\	4A\	-ri-	4ee\	-ri-	4ee\	4gg\
.	.	8cc#\J	8ee\J	.	.	.	.	.	.
=63	=63	=63	=63	=63	=63	=63	=63	=63	=63
4d\	.	4dd\	4ff#\	4D\	-a	4dd\	-a	2dd\	2ff#\
4D/	.	2dd\	(2dd\	4D\	ju-	2dd\	ju-	.	.
4E/	.	.	.	4E\	.	.	.	2rg	2r
4F#/	.	4ccn\	4ccn\)	4F#\	-di-	4ccn\	-di-	.	.
!	!	!	!LO:PB:g=original	!	!	!	!	!	!
=64	=64	=64	=64	=64	=64	=64	=64	=64	=64
!	!	!	!	!	!	!	!	!LO:TX:a:t=2	!LO:TX:a:t=2
2G\	.	4b\	4b\	2G\	-ca-	4b\	-ca-	0r	0r
.	.	2dd#X\	2dd#X\	.	.	2dd#X\	.	.	.
2GG/	.	.	.	2G\	-re	.	.	.	.
.	.	4ee\	4ee\	.	.	4ee\	-re	.	.
!	!	!	!	!LO:LB:g=original	!	!	!	!	!
=65	=65	=65	=65	=65	=65	=65	=65	=65	=65
4r	.	8bb\L	8bb\L	4r	.	4r	.	.	.
!	!	!LO:SIC:v:s=gg#	!	!	!	!	!	!	!
.	.	8gg\J	8gg#X\J	.	.	.	.	.	.
4E\	.	2ee\	2ee\	4E\	vi-	4bb\	vi-	.	.
4F#\	.	.	.	4F#\	-vos	4b\	-vos	.	.
!	!	!	!	!	!	!LO:TX:a:t=d	!	!	!
4G#X\	.	4ddn\	4dd\	4G#X\	et	4dd\	vi-	.	.
=66	=66	=66	=66	=66	=66	=66	=66	=66	=66
1A 1AA	.	8cc#\L	8cc#X\L	1A	mor-	4cc#\	-vos	4r	4r
.	.	8a\	8a\	.	.	.	.	.	.
.	.	8aa\	8aa\	.	.	4a\	et	4ff#\	4aa\
.	.	8aa\J	8aa\J	.	.	.	.	.	.
*	*	*tremolo	*tremolo	*	*	*	*	*	*
.	.	8aa\L	8aa\L	.	.	2aa\	mor-	2ff#\	2aa\
.	.	8aa\	8aa\	.	.	.	.	.	.
.	.	8aa\	8aa\	.	.	.	.	.	.
.	.	8aa\J	8aa\J	.	.	.	.	.	.
*	*	*Xtremolo	*Xtremolo	*	*	*	*	*	*
=67	=67	=67	=67	=67	=67	=67	=67	=67	=67
1A 1AA	.	8gg\L	8bb\L	1A	.	2aa\	.	2gg\	2bb\
.	.	8gg\	8bb\	.	.	.	.	.	.
.	.	8gg\	8bb\	.	.	.	.	.	.
.	.	8gg\J	8bb\J	.	.	.	.	.	.
*	*	*tremolo	*tremolo	*	*	*	*	*	*
.	.	8gg\L	8bb\L	.	.	2gg\	.	2r	2r
.	.	8gg\	8bb\	.	.	.	.	.	.
.	.	8gg\	8bb\	.	.	.	.	.	.
.	.	8gg\J	8bb\J	.	.	.	.	.	.
*	*	*Xtremolo	*	*	*	*	*	*	*
!	!	!LO:LB:g=original	!	!	!	!	!	!	!
=68	=68	=68	=68	=68	=68	=68	=68	=68	=68
1A 1AA	.	8ff#\L	8aa\L	1A	.	2gg\	.	2ff#\	2aa\
.	.	8ff#\	8aa\	.	.	.	.	.	.
.	.	8ff#\	8aa\	.	.	.	.	.	.
.	.	8ff#\J	8aa\J	.	.	.	.	.	.
*	*	*tremolo	*	*	*	*	*	*	*
.	.	8ff#\L	8aa\L	.	.	2ff#\	.	2r	2r
.	.	8ff#\	8aa\	.	.	.	.	.	.
.	.	8ff#\	8aa\	.	.	.	.	.	.
.	.	8ff#\J	8aa\J	.	.	.	.	.	.
*	*	*	*Xtremolo	*	*	*	*	*	*
!	!	!	!	!	!	!LO:LB:g=original	!	!	!
=69	=69	=69	=69	=69	=69	=69	=69	=69	=69
1A 1AA	.	8ee\L	8gg\L	1A	.	(2ff#\	.	2ee\	2gg\
.	.	8ee\	8gg\	.	.	.	.	.	.
.	.	8ee\	8gg\	.	.	.	.	.	.
.	.	8ee\J	8gg\J	.	.	.	.	.	.
*	*	*	*tremolo	*	*	*	*	*	*
.	.	8ee\L	8gg\L	.	.	2ee\)	.	2r	2r
.	.	8ee\	8gg\	.	.	.	.	.	.
.	.	8ee\	8gg\	.	.	.	.	.	.
.	.	8ee\J	8gg\J	.	.	.	.	.	.
*	*	*	*Xtremolo	*	*	*	*	*	*
=70	=70	=70	=70	=70	=70	=70	=70	=70	=70
1A 1AA	.	8dd\L	8ff#\L	2A\	.	(2ee\	-tu-	2dd\	2ff#\
.	.	8dd\	8ff#\	.	.	.	.	.	.
.	.	8dd\	8ff#\	.	.	.	.	.	.
.	.	8dd\J	8ff#\J	.	.	.	.	.	.
*	*	*	*tremolo	*	*	*	*	*	*
.	.	8dd\L	8ff#\L	2A\	-tu-	2dd\)	-os	2rg	2r
.	.	8dd\	8ff#\	.	.	.	.	.	.
.	.	8dd\	8ff#\	.	.	.	.	.	.
.	.	8dd\J	8ff#\J	.	.	.	.	.	.
*	*	*Xtremolo	*Xtremolo	*	*	*	*	*	*
=71	=71	=71	=71	=71	=71	=71	=71	=71	=71
4A\	.	8cc#\L	4ee\	4A\	-os	4cc#\	cu-	4a/	4ee\
.	.	8a\J	.	.	.	.	.	.	.
4c#\	.	2ff#\	4aa\	2d\	Cu-	(2ff#\	-ius	4r	4r
4d\	.	.	4aa\	.	.	.	.	4r	4r
4D/	.	4dd\	4ff#\	4D/	-ius	4ee\)	.	4dd\	4ff#\
=72	=72	=72	=72	=72	=72	=72	=72	=72	=72
4A\	.	8cc#\L	4ee\	4A\	Reg-	(2ee\	Reg-	4a/	4ee\
.	.	8a\J	.	.	.	.	.	.	.
4c#\	.	2ff#\	2aa\	2d\	.	.	.	4r	4r
4d\	.	.	.	.	.	2ff#\)	.	4r	4r
4D/	.	4dd\	4ff#\	4D/	.	.	.	4dd\	4ff#\
!	!	!	!LO:LB:g=original	!	!	!	!	!LO:LB:g=original	!
=73	=73	=73	=73	=73	=73	=73	=73	=73	=73
4A\	.	4cc#\	4ee\	2A\	-ni	4ee\	-ni	2a/	2ee\
4AA/	.	4a\	4a\	.	.	4a\	non	.	.
2r	.	4b\	4b\	2r	.	4b\	e-	2r	2r
.	.	4cc#\	4cc#\	.	.	4cc#\	-rit	.	.
!LO:LB:g=original	!	!	!	!	!	!	!	!	!
=74	=74	=74	=74	=74	=74	=74	=74	=74	=74
!	!	!	!	!	!	!	!	!LO:TX:a:t=3	!LO:TX:a:t=6
4r	.	2dd\	2dd\	4r	.	(2dd\	fi-	0r	0r
4D\	.	.	.	4D\	non	.	.	.	.
4E\	.	2ccn\	2ccn\	(4E\	e-	2ccn\)	.	.	.
4F#\	.	.	.	4F#\)	.	.	.	.	.
=75	=75	=75	=75	=75	=75	=75	=75	=75	=75
4G\	.	4b\	4b\	2G\	-rit	4b\	-nis	.	.
4GG/	.	4b\	4b\	.	.	4b\	non	.	.
2rC	.	4cc#\	4cc#X\	2r	.	4cc#X\	e-	.	.
!	!	!	!LO:SIC:v:s=dd#	!	!	!LO:SIC:v:s=dd#	!	!	!
.	.	4dd#X\	4dd\	.	.	4dd\	-rit	.	.
=76	=76	=76	=76	=76	=76	=76	=76	=76	=76
4r	.	2ee\	2ee\	4r	.	(2ee\	fi-	1r	1r
4E\	.	.	.	4E\	non	.	.	.	.
4F#\	.	2ddn\	2dd\	(4F#\	e-	2dd\)	.	.	.
!	!	!	!	!	!	!	!	!	!LO:TX:b:i:t=Cito
4G#X\	.	.	.	4G#X\)	.	.	.	.	.
!	!	!	!	!LO:LB:g=original	!	!	!	!	!LO:LB:g=original
=77	=77	=77	=77	=77	=77	=77	=77	=77	=77
!	!	!	!LO:TUP:problem=klamra łukowa	!	!	!	!	!	!
4A\	.	8cc#\L	12cc#X\L	4A\	-rit	4cc#\	-nis	4r	4r
.	.	.	12b\	.	.	.	.	.	.
.	.	8a\J	.	.	.	.	.	.	.
.	.	.	12a\J	.	.	.	.	.	.
4AA/	.	(4ff#\	4aa\	4A\	non	4aa\	non	4ff#\	4aa\
4AA/	.	4ee\	4gg\	4A\	e-	4gg\	e-	4ee\	4gg\
4AA/	.	4dd\)	4ff#\	4A\	-rit	4ff#\	-rit	4dd\	4ff#\
=78	=78	=78	=78	=78	=78	=78	=78	=78	=78
!	!	!	!LO:TUP:problem=klamra łukowa	!	!	!	!	!	!
4r	.	8cc#\L	12ee\L	4r	.	4r	.	4r	4r
.	.	.	12cc#\	.	.	.	.	.	.
.	.	8a\J	.	.	.	.	.	.	.
.	.	.	12a\J	.	.	.	.	.	.
*	*	*	*	*	*	*	*ij	*	*
4AA/	.	(4ee\	4gg\	4A\	non	4gg\	non	4ee\	4gg\
4AA/	.	4dd\	4ff#\	4A\	e-	4ff#\	e-	4dd\	4ff#\
4AA/	.	4cc#\)	4ee\	4A\	-rit	4ee\	-rit	4a/	4ee\
*	*	*	*	*	*	*	*Xij	*	*
!	!	!LO:LB:g=original	!	!	!	!LO:LB:g=original	!	!	!
=79	=79	=79	=79	=79	=79	=79	=79	=79	=79
!	!	!	!LO:TUP:problem=klamra łukowa	!	!	!	!	!	!
4r	.	8dd\L	12ff#\L	4r	.	4r	.	4r	4r
.	.	.	12dd\	.	.	.	.	.	.
.	.	8a\J	.	.	.	.	.	.	.
.	.	.	12a\J	.	.	.	.	.	.
*	*	*	*	*	*ij	*	*	*	*
4AA/	.	4ff#\	4aa\	4A\	non	4aa\	non	4ff#\	4aa\
4AA/	.	4ee\	4gg\	4A\	e-	4gg\	e-	4ee\	4gg\
4AA/	.	4dd\	4ff#\	4A\	-rit	4ff#\	-rit	4dd\	4ff#\
*	*	*	*	*	*Xij	*	*	*	*
=80	=80	=80	=80	=80	=80	=80	=80	=80	=80
4r	.	4dd\	4ff#\	4A\	fi-	4ee\	fi-	4dd\	4ff#\
8A\L	.	4cc#\	4ee\	4A\	-nis	4a\	-nis	4a/	4ee\
8G\J	.	.	.	.	.	.	.	.	.
4F#\	.	2rg	2r	2r	.	2re	.	2r	2rg
4E\	.	.	.	.	.	.	.	.	.
=81	=81	=81	=81	=81	=81	=81	=81	=81	=81
4D\	.	4dd\	4dd\	4D\	et	2ff#\	Qui	1r	1r
4F#\	.	2aa\	2aa\	4F#\	in	.	.	.	.
4A\	.	.	.	4A\	Spi-	2ee\	cum	.	.
4AA/	.	4cc#\	4cc#\	8AA/	-ri-	.	.	.	.
.	.	.	.	8AA/	-tum	.	.	.	.
=82	=82	=82	=82	=82	=82	=82	=82	=82	=82
4D\	.	4dd\	4dd\	4D\	Sanc-	4dd\	Pa-	4f#/	4dd\
4F#\	.	2a/	2a/	4F#\	-tum	2a\	-tre	2ff#\	2aa\
4C#/	.	.	.	8C#/	Do-	.	.	.	.
.	.	.	.	8C#/	-mi-	.	.	.	.
4AA/	.	4cc#\	4cc#\	4AA/	-num	4ee\	et	4a/	4ee\
!	!	!	!LO:LB:g=original	!	!	!	!	!	!
=83	=83	=83	=83	=83	=83	=83	=83	=83	=83
4D\	.	4dd\	4dd\	4D\	et	2ff#\	fi-	2dd\	2ff#\
4F#\	.	2aa\	2aa\	(4F#\	vi-	.	.	.	.
4A\	.	.	.	4A\	.	2ee\	-li-	2rg	2r
4AA/	.	4cc#\	4cc#\	4AA/)	.	.	.	.	.
=84	=84	=84	=84	=84	=84	=84	=84	=84	=84
4D\	.	4dd\	4dd\	4D\	-fi-	2dd\	-o	4f#/	4ff#\
4F#\	.	2a/	2a/	(4F#\	-can-	.	.	2ff#\	2aa\
4C#/	.	.	.	4C#/)	.	2r	.	.	.
!	!	!	!	!	!	!	!	!LO:TX:b:i:t=Cito	!
4AA/	.	4cc#\	4ee\	4AA/	-tem	.	.	4a/	4ee\
!	!	!	!	!LO:LB:g=original	!	!	!	!LO:PB:g=original	!
=85	=85	=85	=85	=85	=85	=85	=85	=85	=85
4D\	.	8dd\L	8ff#\L	2D\	qui	4ff#\	si-	4f#/	4ff#\
.	.	8ff#\	8aa\	.	.	.	.	.	.
4D\	.	8ff#\	8aa\	.	.	4ff#\	-mul	4ff#\	4aa\
.	.	8ff#\J	8aa\J	.	.	.	.	.	.
*	*	*tremolo	*tremolo	*	*	*	*	*	*
4D\	.	8ff#\L	8aa\L	2d\	ex	4ff#\	a-	2ff#\	2aa\
.	.	8ff#\	8aa\	.	.	.	.	.	.
4D\	.	8ff#\	8aa\	.	.	4ff#\	-do-	.	.
.	.	8ff#\J	8aa\J	.	.	.	.	.	.
*	*	*Xtremolo	*Xtremolo	*	*	*	*	*	*
=86	=86	=86	=86	=86	=86	=86	=86	=86	=86
4D\	.	8ff#\L	8aa\L	4d\	Pa-	4ff#\	-ra-	2ff#\	2aa\
.	.	8dd\	[8ff#\	.	.	.	.	.	.
4D\	.	8dd\	8ff#\]	4D/	-tre	4ff#\	-tur	.	.
.	.	8a\J	8dd\J	.	.	.	.	.	.
4D\	.	4a/	8dd\L	4D/	fi-	4r	.	2r	2r
.	.	.	[8a\	.	.	.	.	.	.
4D\	.	4cc#\	8a\]	4D/	-li-	4ff#\	et	.	.
.	.	.	8dd\J	.	.	.	.	.	.
=87	=87	=87	=87	=87	=87	=87	=87	=87	=87
4AA/	.	8ee\L	8ee\L	2A\	-o-	4ee\	con-	4a/	4ee\
.	.	8ee\	8gg\	.	.	.	.	.	.
4AA/	.	8ee\	8gg\	.	.	4ee\	-glo-	4ee\	4gg\
.	.	8ee\J	8gg\J	.	.	.	.	.	.
*	*	*tremolo	*tremolo	*	*	*	*	*	*
4AA/	.	8ee\L	8gg\L	4A\	-que	4ee\	-ri-	2ee\	2gg\
.	.	8ee\	8gg\	.	.	.	.	.	.
4AA/	.	8ee\	8gg\	4A\	pro-	4ee\	-fi-	.	.
.	.	8ee\J	8gg\J	.	.	.	.	.	.
*	*	*Xtremolo	*Xtremolo	*	*	*	*	*	*
!LO:LB:g=original	!	!LO:PB:g=original	!	!	!	!	!	!	!LO:LB:g=original
=88	=88	=88	=88	=88	=88	=88	=88	=88	=88
4A\	.	8ee\L	8gg\L	2A\	-ce-	4ee\	-ca-	2ee\	2gg\
.	.	8cc#\	8ee\	.	.	.	.	.	.
4AA/	.	8cc#\	8ee\	.	.	4ee\	-tur	.	.
.	.	8a\J	8cc#\J	.	.	.	.	.	.
4AA/	.	4a\	8cc#\L	4A\	-dit	2r	.	2rg	2r
.	.	.	8a\	.	.	.	.	.	.
4AA/	.	4cc#\	8a\	4A\	et	.	.	.	.
.	.	.	8cc#\J	.	.	.	.	.	.
!	!	!	!	!	!	!LO:PB:g=original	!	!	!
=89	=89	=89	=89	=89	=89	=89	=89	=89	=89
!	!	!	!	!	!	!	!	!LO:TX:a:t=10	!LO:TX:a:t=10
4D\	.	8dd\L	8dd\L	4d\	con-	8dd\L	Si-	00r	00r
.	.	8ee\	8ee\	.	.	8ee\J	.	.	.
4D\	.	8ff#\	8ff#\	4D/	-glo-	8ff#\L	-mul	.	.
.	.	8ee\J	8ee\J	.	.	8ee\J	.	.	.
4D\	.	8dd\L	8dd\L	4D/	-ri-	8dd\L	a-	.	.
.	.	8cc#\	8cc#\	.	.	8cc#\J	.	.	.
4D\	.	8b\	8b\	4D/	-fi-	8b\L	-do-	.	.
.	.	8a\J	8a\J	.	.	8a\J	.	.	.
=90	=90	=90	=90	=90	=90	=90	=90	=90	=90
!	!	!	!LO:N:vis=16	!	!	!	!	!	!
!	!	!	!LO:TX:a:t=P:problem=mixed beam	!	!	!	!	!	!
4E\	.	8g#X/L	8g#X/L	4E\	-ca-	8g#X/L	-ra-	.	.
!	!	!	!LO:N:vis=16	!	!	!	!	!	!
.	.	8e/	8e/	.	.	8e/J	.	.	.
!	!	!	!LO:N:vis=16	!	!	!	!	!	!
8E\L	.	8b/	8ee\	8E\L	-tur	4ee\	-tur	.	.
!	!	!	!LO:N:vis=16	!	!	!	!	!	!
8F#\J	.	8b/J	8ee\J	8F#\J	.	.	.	.	.
*	*	*tremolo	*tremolo	*	*	*	*	*	*
4G#X\	.	8b\L	8ee\L	4G#X\	qui	4ee\	qui	.	.
.	.	8b\	8ee\	.	.	.	.	.	.
4E\	.	8b\	8ee\	4E\	lo-	4ee\	lo-	.	.
.	.	8b\J	8ee\J	.	.	.	.	.	.
*	*	*Xtremolo	*	*	*	*	*	*	*
!	!	!	!LO:LB:g=original	!	!	!	!	!	!
=91	=91	=91	=91	=91	=91	=91	=91	=91	=91
4A\	.	8cc#\L	8cc#\L	4A\	-cu-	4cc#\	-cu-	.	.
.	.	8cc#\	8ee\	.	.	.	.	.	.
8A\L	.	8cc#\	8ee\	4A\	-lus	4ee\	-lus	.	.
8B\J	.	8cc#\J	8ee\J	.	.	.	.	.	.
*	*	*tremolo	*	*	*	*	*	*	*
4c#\	.	8cc#\L	8ee\L	2c#\	est	2ee\	est	.	.
.	.	8cc#\	8ee\	.	.	.	.	.	.
4A\	.	8cc#\	8ee\	.	.	.	.	.	.
.	.	8cc#\J	8ee\J	.	.	.	.	.	.
=92	=92	=92	=92	=92	=92	=92	=92	=92	=92
4E\	.	8b\L	8b\L	2E\	per	2b\	per	.	.
.	.	8b\	8ee\	.	.	.	.	.	.
8E\L	.	8b\	8ee\	.	.	.	.	.	.
8F#\J	.	8b\J	8ee\J	.	.	.	.	.	.
4G#X\	.	8b\L	8ee\L	2G#X\	pro-	2ee\	pro-	.	.
.	.	8b\	8ee\	.	.	.	.	.	.
4E\	.	8b\	8ee\	.	.	.	.	.	.
!	!	!LO:TX:a:t=#vi	!	!	!	!	!	!	!
.	.	8b\J	8ee\J	.	.	.	.	.	.
=93	=93	=93	=93	=93	=93	=93	=93	=93	=93
!	!	!LO:TX:a:t=#de	!	!	!	!	!	!	!
4A\	.	8cc#\L	8cc#\L	2A\	-phe-	2cc#\	-phe-	00r	00r
.	.	8cc#\	8ee\	.	.	.	.	.	.
8A\L	.	8cc#\	8ee\	.	.	.	.	.	.
8B\J	.	8cc#\J	8ee\J	.	.	.	.	.	.
4c#\	.	8cc#\L	8ee\L	2c#\	-taſ	2ee\	-tas	.	.
.	.	8cc#\	8ee\	.	.	.	.	.	.
4A\	.	8cc#\	8ee\	.	.	.	.	.	.
.	.	8cc#\J	8ee\J	.	.	.	.	.	.
*	*	*	*Xtremolo	*	*	*	*	*	*
!	!	!	!	!LO:LB:g=original	!	!	!	!	!
=94	=94	=94	=94	=94	=94	=94	=94	=94	=94
4d\	.	8dd\L	8ff#\L	4r	.	2ff#\	Con-	.	.
.	.	8dd\	8ff#\	.	.	.	.	.	.
4D/	.	8dd\	8ff#\	4d\	et	.	.	.	.
.	.	8dd\J	8ff#\J	.	.	.	.	.	.
*	*	*	*tremolo	*	*	*	*	*	*
4D/	.	8dd\L	8ff#\L	2d\	u-	4ff#\	-fi-	.	.
.	.	8dd\	8ff#\	.	.	.	.	.	.
4D/	.	8dd\	8ff#\	.	.	4ff#\	-te-	.	.
.	.	8dd\J	8ff#\J	.	.	.	.	.	.
=95	=95	=95	=95	=95	=95	=95	=95	=95	=95
2C#/	.	8cc#\L	8ee\L	4c#\	-nam	4ee\	-or	.	.
.	.	8cc#\	8ee\	.	.	.	.	.	.
.	.	8cc#\	8ee\	4c#\	sanc-	4ee\	u-	.	.
.	.	8cc#\J	8ee\J	.	.	.	.	.	.
4r	.	8cc#\L	8ee\L	4c#\	-tam	4ee\	-num	.	.
.	.	8cc#\	8ee\	.	.	.	.	.	.
4C#/	.	8cc#\	8ee\	4c#\	ca-	4ee\	Bab-	.	.
.	.	8cc#\J	8ee\J	.	.	.	.	.	.
=96	=96	=96	=96	=96	=96	=96	=96	=96	=96
2BB/	6\	8b\L	8dd\L	4B\	-tho-	4dd\	-tis-	.	.
.	.	8b\	8dd\	.	.	.	.	.	.
.	.	8b\	8dd\	4B\	-li-	4dd\	-ma	.	.
.	.	8b\J	8dd\J	.	.	.	.	.	.
!	!	!	!	!	!	!LO:LB:g=original	!	!	!
4r	.	8b\L	8dd\L	4B\	-cam	4dd\	in	.	.
.	.	8b\	8dd\	.	.	.	.	.	.
4BB/	.	8b\	8dd\	4B\	et	4dd\	re-	.	.
.	.	8b\J	8dd\J	.	.	.	.	.	.
!	!	!LO:TX:a:t=Re	!	!	!	!	!	!	!
=97	=97	=97	=97	=97	=97	=97	=97	=97	=97
!	!	!LO:TX:b:t=tro.	!	!	!	!	!	!	!
2AA/	.	8a/L	8cc#\L	4A\	A-	4cc#\	-mis-	0r	0r
.	.	8a/	8cc#\	.	.	.	.	.	.
.	.	8a/	8cc#\	4A\	-po-	4cc#\	-si-	.	.
.	.	8a/J	8cc#\J	.	.	.	.	.	.
4r	.	8a/L	8cc#\L	4A\	-sto-	4cc#\	-o-	.	.
.	.	8a/	8cc#\	.	.	.	.	.	.
4AA/	.	8a/	8cc#\	4A\	-li-	4cc#\	-nem	.	.
.	.	8a/J	8cc#\J	.	.	.	.	.	.
=98	=98	=98	=98	=98	=98	=98	=98	=98	=98
2E\	.	8g#X/L	8b\L	4E\	-cam	4b\	pec-	.	.
.	.	8g#X/	8b\	.	.	.	.	.	.
.	.	8g#X/	8b\	4E\	Ec-	4b\	-ca-	.	.
.	.	8g#X/J	8b\J	.	.	.	.	.	.
2E\	.	8g#/L	8b\L	4E\	-cle-	2b\	-to-	.	.
.	.	8g#/	8b\	.	.	.	.	.	.
.	.	8g#/	8b\	4E\	-si-	.	.	.	.
.	.	8g#/J	8b\J	.	.	.	.	.	.
*	*	*Xtremolo	*Xtremolo	*	*	*	*	*	*
=99	=99	=99	=99	=99	=99	=99	=99	=99	=99
2AA/	.	4a/	4f#/	2A\	-am	4a\	-ram	2a/	2ee\
.	.	4cc#\	(4ee\	.	.	4ee\	.	.	.
2r	.	4dd\	4ff#\	4A\	con-	4ff#\	ex-	4dd\	4ff#\
.	.	4ee\	4gg\)	4A\	-fi-	4gg\	.	4ee\	4gg\
!	!	!LO:LB:g=original	!	!	!	!	!	!	!
=100	=100	=100	=100	=100	=100	=100	=100	=100	=100
2d\	.	2dd\	2ff#\	2A\	-te-	2ff#\	-pec-	2dd\	2ff#\
2A\	.	2cc#\	2ee\	2A\	-bor	2ee\	-to	2a/	2ee\
!	!	!	!LO:LB:g=original	!	!	!	!	!	!
=101	=101	=101	=101	=101	=101	=101	=101	=101	=101
1r	.	4r	4r	4A\	re-	4ee\	re-	2a/	2ee\
.	.	4cc#\	4ee\	4A\	-su-	4ee\	-su-	.	.
.	.	4dd\	4ff#\	4A\	-rec-	4ff#\	-rex-	4dd\	4ff#\
.	.	4ee\	4gg\	4A\	-ti-	4gg\	-ci-	4ee\	4gg\
=102	=102	=102	=102	=102	=102	=102	=102	=102	=102
2d\	.	2dd\	2ff#\	2A\	-o-	2ff#\	-o-	2dd\	2ff#\
2A\	.	2cc#\	2ee\	2A\	-nem	2ee\	-nem	2a/	2ee\
!	!	!	!	!LO:LB:g=original	!	!	!	!	!
=103	=103	=103	=103	=103	=103	=103	=103	=103	=103
1r	.	1r	1r	1r	.	1r	.	1r	1r
=104	=104	=104	=104	=104	=104	=104	=104	=104	=104
!LO:TX:a:t=Ada	!	!LO:TX:a:t=Ada	!LO:TX:a:t=Ada	!LO:TX:a:t=Ada	!	!LO:TX:a:t=Ada	!	!LO:TX:a:t=Ada	!LO:TX:a:t=Ada
2D\	.	0r	0r	2D\	mor-	2a\	mor-	0r	0r
2D\	.	.	.	2D\	-tu-	2a\	-tu-	.	.
!LO:LB:g=original	!	!	!	!	!	!	!	!	!
=105	=105	=105	=105	=105	=105	=105	=105	=105	=105
2G\	.	.	.	2G#X\	-o-	2b-X\	-o-	.	.
2G\	.	.	.	2G#\	.	2bn\	.	.	.
!	!	!	!	!	!	!LO:LB:g=original	!	!	!
=106	=106	=106	=106	=106	=106	=106	=106	=106	=106
!LO:TX:a:t=Allo	!	!LO:TX:a:t=Allo	!LO:TX:a:i:t=Allo	!LO:TX:a:t=Allo	!	!LO:TX:a:t=Allo	!	!LO:TX:a:t=Allo	!LO:TX:a:t=allo
4A\	.	4a\	4a\	2A\	-rum	4g\	-rum	0r	0r
4AA/	.	8b\L	8b\L	.	.	4r	.	.	.
.	.	8cc#\J	8cc#\J	.	.	.	.	.	.
4AA/	.	8dd\L	8dd\L	4r	.	4r	.	.	.
.	.	8ee\	8ee\	.	.	.	.	.	.
4r	.	8ff#\	8ff#\	4c#\	et	4ee\	et	.	.
.	.	8gg\J	8gg\J	.	.	.	.	.	.
=107	=107	=107	=107	=107	=107	=107	=107	=107	=107
4r	.	8aa\L	8aa\L	2d\	vi-	2ff#\	vi-	.	.
.	.	8aa\	8aa\	.	.	.	.	.	.
8D\L	.	8aa\	8aa\	.	.	.	.	.	.
8E\J	.	8aa\J	8aa\J	.	.	.	.	.	.
*	*	*tremolo	*tremolo	*	*	*	*	*	*
4F#\	.	8aa\L	8aa\L	4d\	-tam	4ff#\	-tam	.	.
.	.	8aa\	8aa\	.	.	.	.	.	.
4D\	.	8aa\	8aa\	4d\	ven-	4ff#\	ven-	.	.
.	.	8aa\J	8aa\J	.	.	.	.	.	.
*	*	*	*Xtremolo	*	*	*	*	*	*
=108	=108	=108	=108	=108	=108	=108	=108	=108	=108
4A\	.	8aa\L	8aa\L	2c#\	-tu-	2ee\	-tu-	1r	1r
.	.	8aa\	8aa\	.	.	.	.	.	.
8A\L	.	8aa\	8aa\	.	.	.	.	.	.
8B\J	.	8aa\J	8aa\J	.	.	.	.	.	.
*	*	*	*tremolo	*	*	*	*	*	*
4c#\	.	8aa\L	8aa\L	4c#\	-ri	4ee\	-ri	.	.
.	.	8aa\	8aa\	.	.	.	.	.	.
4A\	.	8aa\	8aa\	4c#\	ven-	4ee\	Sae-	.	.
.	.	8aa\J	8aa\J	.	.	.	.	.	.
*	*	*Xtremolo	*	*	*	*	*	*	*
!	!	!	!	!	!	!	!	!LO:LB:g=original	!
=109	=109	=109	=109	=109	=109	=109	=109	=109	=109
4d\	.	8aa\L	8aa\L	2d\	-tu-	2ff#\	-cu-	2ff#\	2aa\
.	.	8aa\	8aa\	.	.	.	.	.	.
8D\L	.	8aa\	8aa\	.	.	.	.	.	.
8E\J	.	8aa\J	8aa\J	.	.	.	.	.	.
*	*	*tremolo	*	*	*	*	*	*	*
4F#\	.	8aa\L	8aa\L	2d\	-ri	2ff#\	-li	2ff#\	2aa\
.	.	8aa\	8aa\	.	.	.	.	.	.
4D\	.	8aa\	8aa\	.	.	.	.	.	.
.	.	8aa\J	8aa\J	.	.	.	.	.	.
*	*	*	*Xtremolo	*	*	*	*	*	*
=110	=110	=110	=110	=110	=110	=110	=110	=110	=110
4E\	.	8ee\L	8gg\L	4e\	se-	2gg\	Sae-	2ee\	2gg\
.	.	8ee\	8gg\	.	.	.	.	.	.
4D\	.	8ee\	8gg\	4d\	.	.	.	.	.
.	.	8ee\J	8gg\J	.	.	.	.	.	.
*	*	*	*tremolo	*	*	*	*	*	*
4C#/	.	8ee\L	8gg\L	4c#\	-cu-	4gg\	-cu-	2ee\	2gg\
.	.	8ee\	8gg\	.	.	.	.	.	.
4AA/	.	8ee\	8gg\	4A\	-li	4gg\	-li	.	.
.	.	8ee\J	8gg\J	.	.	.	.	.	.
*	*	*Xtremolo	*Xtremolo	*	*	*	*	*	*
!	!	!LO:LB:g=original	!LO:LB:g=original	!	!	!	!	!	!
=111	=111	=111	=111	=111	=111	=111	=111	=111	=111
4D\	.	8dd\L	8ff#\L	4D\	a-	2ff#\	a-	2dd\	2ff#\
.	.	8dd\	8ff#\	.	.	.	.	.	.
4E\	.	8dd\	8ff#\	4E\	.	.	.	.	.
.	.	8dd\J	8ff#\J	.	.	.	.	.	.
*	*	*	*tremolo	*	*	*	*	*	*
4F#\	.	8dd\L	8ff#\L	4F#\	.	2ff#\	-men	2dd\	2ff#\
.	.	8dd\	8ff#\	.	.	.	.	.	.
4G\	.	8dd\	8ff#\	4G\	.	.	.	.	.
.	.	8dd\J	8ff#\J	.	.	.	.	.	.
*	*	*	*Xtremolo	*	*	*	*	*	*
=112	=112	=112	=112	=112	=112	=112	=112	=112	=112
2A\	6 4	2ee\	2ee\	2A\	.	2ee\	a-	2a/	2ee\
.	x 3	.	.	.	.	.	.	.	.
2AA/	.	2cc#\	2cc#\	2AA/	.	2cc#\	.	2a/	2ee\
=113	=113	=113	=113	=113	=113	=113	=113	=113	=113
2D\	.	4dd\	4dd\	2D\	-men	2dd\	-men	2dd\	2ff#\
.	.	4ff#\	4ddd\	.	.	.	.	.	.
2AA/	.	2ee\	4a/	2A\	a-	2ee\	a-	2a/	2ee\
.	.	.	4ccc#\	.	.	.	.	.	.
=114	=114	=114	=114	=114	=114	=114	=114	=114	=114
2DD/	.	2ff# 2a 2d/	2ddd\	2d\	-men	2ff#\	-men	2dd\	2ff#\
2r	.	2r	2r	2r	.	2r	.	2rg	2r
==	==	==	==	==	==	==	==	==	==
*-	*-	*-	*-	*-	*-	*-	*-	*-	*-
!!!system-decoration: [g1][g2][g3]s7
!!!ENC: Zofia Niedbalska
!!!END: 2020-12-04
!!!ENC: Marcin Jachim
!!!END: 2020-05-12
